icons/brand/icon_visa_l_white.svg

<?xml version="1.0" encoding="UTF-8"?>
<svg width="30px" height="10px" viewBox="0 0 30 10" version="1.1" xmlns="http://www.w3.org/2000/svg" xmlns:xlink="http://www.w3.org/1999/xlink">
    <!-- Generator: Sketch 46.2 (44496) - http://www.bohemiancoding.com/sketch -->
    <title>icon_visa_l_color</title>
    <desc>Created with Sketch.</desc>
    <defs></defs>
    <g id="aic-test" stroke="none" stroke-width="1" fill="none" fill-rule="evenodd">
        <g id="aic_android-copy-5" transform="translate(-60.000000, -428.000000)" fill="#FFFFFF">
            <g id="icon_visa_l_color" transform="translate(60.000000, 428.000000)">
                <g id="Group-12">
                    <polygon id="Shape" points="10.5985714 9.83333333 13.0232143 9.83333333 14.5392857 0.173333333 12.1146429 0.173333333"></polygon>
                    <path d="M25.9692857,0.173333333 C25.0692857,0.173333333 24.8496429,0.893333333 24.8496429,0.893333333 L21.2325,9.83444444 L23.76,9.83444444 L24.2657143,8.4 L27.3492857,8.4 L27.6342857,9.83444444 L29.8607143,9.83444444 L27.9192857,0.173333333 L25.9692857,0.173333333 L25.9692857,0.173333333 Z M24.9653571,6.41666667 L26.2392857,2.80111111 L26.9560714,6.41666667 L24.9653571,6.41666667 L24.9653571,6.41666667 Z" id="Shape"></path>
                    <path d="M14.8789286,7.28555556 L14.5178571,9.45444444 C14.5178571,9.45444444 15.6010714,10 17.2553571,10 C18.9096429,10 21.4071429,9.11111111 21.4071429,6.69222222 C21.4071429,4.18 18.0225,3.94666667 18.0225,2.85444444 C18.0225,1.76222222 20.3839286,1.90222222 21.4221429,2.49555556 L21.7682143,0.421111111 C21.7682143,0.421111111 20.7,1.77635684e-15 19.5867857,1.77635684e-15 C18.3835714,1.77635684e-15 15.525,0.545555556 15.525,3.19777778 C15.525,5.69444444 18.8796429,5.72444444 18.8796429,7.03555556 C18.8807143,8.34666667 15.8721429,8.11222222 14.8789286,7.28555556 L14.8789286,7.28555556 Z" id="Shape"></path>
                    <path d="M5.15678571,1.04333333 C5.15678571,1.04333333 5.05821429,0.173333333 4.00607143,0.173333333 L0.184285714,0.173333333 L0.139285714,0.336666667 C0.139285714,0.336666667 0.170357143,0.344444444 0.203571429,0.352222222 C0.216428571,0.355555556 0.238928571,0.362222222 0.255,0.365555556 C0.291428571,0.375555556 0.341785714,0.388888889 0.396428571,0.405555556 C0.429642857,0.415555556 0.466071429,0.426666667 0.504642857,0.437777778 C0.564642857,0.456666667 0.636428571,0.48 0.709285714,0.504444444 C0.756428571,0.52 0.801428571,0.535555556 0.852857143,0.553333333 C0.966428571,0.594444444 1.09178571,0.642222222 1.22571429,0.696666667 C1.26642857,0.713333333 1.30714286,0.731111111 1.35,0.748888889 C1.47964286,0.804444444 1.61678571,0.865555556 1.75928571,0.934444444 C1.82357143,0.965555556 1.89107143,1.00111111 1.9575,1.03555556 C2.07214286,1.09444444 2.19,1.15666667 2.31,1.22444444 C2.385,1.26666667 2.46107143,1.31111111 2.53714286,1.35666667 C2.58428571,1.38444444 2.6325,1.41777778 2.67964286,1.44777778 L4.78392857,9.83111111 L7.31035714,9.83111111 L11.1685714,0.17 L8.55857143,0.17 L6.24642857,6.81444444 L5.97321429,5.38333333 L5.97321429,5.38333333 L5.15678571,1.04333333 L5.15678571,1.04333333 Z" id="Shape"></path>
                </g>
            </g>
        </g>
    </g>
</svg>

<svg width="30" height="10" viewBox="0 0 30 10" xmlns="http://www.w3.org/2000/svg">
  <g fill="#FFF" fill-rule="evenodd">
    <path d="M10.6 9.833h2.423L14.54.173h-2.425M25.97.173c-.9 0-1.12.72-1.12.72l-3.617 8.94h2.527l.506-1.433h3.083l.284 1.434h2.227L27.92.174h-1.95zm-1.005 6.244L26.24 2.8l.716 3.617h-1.99zM14.88 7.286l-.362 2.168S15.6 10 17.255 10c1.655 0 4.152-.89 4.152-3.308 0-2.512-3.384-2.745-3.384-3.838 0-1.092 2.36-.952 3.4-.358L21.767.42S20.7 0 19.588 0c-1.204 0-4.063.546-4.063 3.198 0 2.496 3.355 2.526 3.355 3.838 0 1.31-3.008 1.076-4 .25zM5.157 1.043s-.1-.87-1.15-.87H.183L.14.337l.064.015.05.014c.037.01.088.023.142.04l.11.032.203.066.143.05c.113.04.24.088.373.143L1.35.75c.13.054.267.116.41.184l.198.102c.114.058.232.12.352.188l.227.133c.047.027.095.06.143.09l2.104 8.384H7.31L11.17.17H8.56L6.245 6.814l-.273-1.43-.816-4.34z"/>
  </g>
</svg>
